img/icon-scalping.svg

<svg width="130" height="126" viewBox="0 0 130 126" fill="none" xmlns="http://www.w3.org/2000/svg">
<g filter="url(#filter0_d_579_1234)">
<path fill-rule="evenodd" clip-rule="evenodd" d="M55.9651 15.3914C55.6857 15.6111 55.3667 16.1159 55.2561 16.5134C55.1445 16.915 55.0547 19.2968 55.0541 21.8709L55.0529 26.5054H53.9633C53.0194 26.5054 52.7972 26.5817 52.3025 27.0758L51.7314 27.6462V36.2602C51.7314 41.7948 51.8033 45.0082 51.9327 45.2494C52.2338 45.8116 53.1651 46.2143 54.1639 46.2143H55.0529L55.0638 50.9464C55.0765 56.3833 55.1662 56.8614 56.2729 57.4016C56.8885 57.7019 57.1128 57.7228 57.6888 57.5329C58.9437 57.1192 58.9605 57.0378 58.9605 51.3419V46.2143H59.9472C61.0341 46.2143 61.966 45.8283 62.2761 45.2494C62.4054 45.0082 62.4773 41.803 62.4773 36.2861V27.6981L62.0065 27.1513C61.6075 26.6881 61.3469 26.5897 60.2969 26.5062L59.0582 26.4079L58.9605 21.1708L58.8628 15.9336L58.3146 15.463C57.6331 14.8778 56.657 14.8481 55.9651 15.3914ZM87.5458 15.463L86.9975 15.9336L86.8998 21.1708L86.8022 26.4079L85.5635 26.5062C84.5135 26.5897 84.2528 26.6881 83.8539 27.1513L83.383 27.6981V36.2861C83.383 41.803 83.4549 45.0082 83.5843 45.2494C83.8943 45.8283 84.8263 46.2143 85.9132 46.2143H86.8998V51.3419C86.8998 57.0378 86.9167 57.1192 88.1716 57.5329C88.7476 57.7228 88.9719 57.7019 89.5875 57.4016C90.6941 56.8614 90.7838 56.3833 90.7965 50.9464L90.8074 46.2143H91.6964C92.6952 46.2143 93.6266 45.8116 93.9277 45.2494C94.057 45.0082 94.1289 41.7948 94.1289 36.2602V27.6462L93.5578 27.0758C93.0631 26.5817 92.841 26.5054 91.8971 26.5054H90.8074L90.8063 21.8709C90.8057 19.2968 90.7158 16.915 90.6043 16.5134C90.2029 15.0702 88.6319 14.5304 87.5458 15.463ZM21.1519 24.71C18.273 25.7042 16.0398 28.0634 15.3032 30.8882C15.0358 31.9139 15 35.4332 15 60.6545C15 85.723 15.0369 89.3996 15.2995 90.4062C16.1764 93.7684 19.102 96.3797 22.6198 96.9399C23.4078 97.0656 29.0887 97.1429 37.5891 97.1437L51.2881 97.1452L51.3927 98.56C51.5087 100.131 51.2715 103.902 50.9355 105.83L50.7172 107.081L44.7597 107.138L38.802 107.195L38.3307 107.742C37.6391 108.546 37.6813 109.681 38.4306 110.43L39.0017 111H64.9759C90.6281 111 90.9563 110.995 91.4454 110.611C92.4057 109.856 92.467 108.379 91.5718 107.569C91.188 107.222 90.7215 107.188 85.1715 107.097L79.1851 107L78.9493 105.731C78.5753 103.719 78.3014 99.8576 78.4331 98.4505L78.5534 97.1614L93.1307 97.0998C106.622 97.0426 107.787 97.0114 108.773 96.682C111.789 95.6743 114.218 93.0073 114.839 90.0227C114.975 89.367 115.024 79.2884 114.989 59.2885L114.937 29.5301L114.424 28.4568C113.7 26.9418 112.72 25.9013 111.288 25.1258L110.052 24.4565L104.627 24.3964L99.2014 24.3363L98.6189 24.918C97.8277 25.7083 97.823 26.6508 98.6062 27.5268L99.1762 28.1641L104.223 28.2617C109.918 28.3717 109.965 28.3838 110.733 29.9332C111.122 30.7157 111.127 31.0607 111.127 55.0572V79.3877H65.0142H18.9015L18.9533 55.5321L19.0053 31.6766L19.4334 30.8775C19.6688 30.438 20.1776 29.8013 20.564 29.4623C21.9006 28.2903 22.0909 28.2619 28.5539 28.2605C31.9854 28.2599 34.7422 28.1758 35.1642 28.0587C36.6831 27.6374 37.1829 25.9947 36.1161 24.9293L35.545 24.3589L28.8382 24.3653C22.993 24.3708 22.0055 24.4151 21.1519 24.71ZM58.5697 36.3599V42.3116H57.1044H55.639V36.3599V30.4082H57.1044H58.5697V36.3599ZM90.2213 36.3599V42.3116H88.756H87.2906V36.3599V30.4082H88.756H90.2213V36.3599ZM40.4596 30.7912C40.2241 30.8909 39.8725 31.2147 39.6781 31.5105C39.3649 31.9876 39.318 32.6187 39.2641 37.0825L39.2031 42.1164H38.1256C37.195 42.1164 36.9699 42.1943 36.4768 42.6868L35.9057 43.2572V51.9449V60.6326L36.3646 61.1658C36.7499 61.6128 37.0168 61.7125 38.0253 61.7853L39.2271 61.8722L39.2381 66.5808C39.2508 71.935 39.3457 72.457 40.4111 73.0272C41.2399 73.4707 41.9677 73.3509 42.6631 72.6564L43.1347 72.1854V67.0281V61.8708L44.4311 61.7884C45.5494 61.7172 45.7907 61.6323 46.1895 61.1693L46.6516 60.6326V51.9709V43.3091L46.1807 42.7623C45.7817 42.2991 45.5211 42.2007 44.4711 42.1172L43.2324 42.0189L43.1347 36.804C43.0423 31.868 43.0155 31.5677 42.6346 31.1876C42.1711 30.7251 41.0838 30.5268 40.4596 30.7912ZM72.1418 30.7799C71.205 31.1805 71.1774 31.337 71.0741 36.8284L70.9764 42.0189L69.7377 42.1172C68.6877 42.2007 68.4271 42.2991 68.0281 42.7623L67.5572 43.3091V51.9709V60.6326L68.0193 61.1693C68.4181 61.6323 68.6594 61.7172 69.7777 61.7884L71.0741 61.8708V67.0281V72.1854L71.5457 72.6564C72.2411 73.3509 72.9689 73.4707 73.7977 73.0272C74.8631 72.457 74.958 71.935 74.9707 66.5808L74.9817 61.8722L76.1835 61.7853C77.192 61.7125 77.4589 61.6128 77.8442 61.1658L78.3031 60.6326V51.9449V43.2572L77.732 42.6868C77.2373 42.1927 77.0152 42.1164 76.0713 42.1164H74.9817L74.9805 37.4819C74.9795 32.7202 74.8562 31.6842 74.2232 31.112C73.7865 30.7173 72.6953 30.5432 72.1418 30.7799ZM42.744 51.9709V57.9226H41.2786H39.8133V51.9709V46.0192H41.2786H42.744V51.9709ZM74.3955 51.9709V57.9226H72.9302H71.4648V51.9709V46.0192H72.9302H74.3955V51.9709ZM111.093 86.4614C111.016 90.0395 110.828 90.6561 109.443 91.8707C107.856 93.2622 111.947 93.1449 65.0173 93.1449C18.0872 93.1449 22.1785 93.2622 20.5914 91.8707C19.2065 90.6561 19.0186 90.0395 18.9418 86.4614L18.874 83.2905H65.0173H111.161L111.093 86.4614ZM74.5366 100.024C74.5481 101.607 74.697 103.817 74.8674 104.936C75.0377 106.055 75.1771 106.999 75.1771 107.034C75.1771 107.069 70.5553 107.097 64.9065 107.097C55.2157 107.097 54.6416 107.078 54.7395 106.756C55.0175 105.84 55.2825 102.606 55.2907 100.024L55.3001 97.1452H64.9077H74.5155L74.5366 100.024Z" fill="#06FF79"/>
</g>
<defs>
<filter id="filter0_d_579_1234" x="0" y="0" width="130" height="126" filterUnits="userSpaceOnUse" color-interpolation-filters="sRGB">
<feFlood flood-opacity="0" result="BackgroundImageFix"/>
<feColorMatrix in="SourceAlpha" type="matrix" values="0 0 0 0 0 0 0 0 0 0 0 0 0 0 0 0 0 0 127 0" result="hardAlpha"/>
<feOffset/>
<feGaussianBlur stdDeviation="7.5"/>
<feComposite in2="hardAlpha" operator="out"/>
<feColorMatrix type="matrix" values="0 0 0 0 0.0463889 0 0 0 0 0.695833 0 0 0 0 0.346333 0 0 0 0.8 0"/>
<feBlend mode="normal" in2="BackgroundImageFix" result="effect1_dropShadow_579_1234"/>
<feBlend mode="normal" in="SourceGraphic" in2="effect1_dropShadow_579_1234" result="shape"/>
</filter>
</defs>
</svg>

<svg width="130" height="126" fill="none" xmlns="http://www.w3.org/2000/svg"><g filter="url(#filter0_d_579_1234)"><path fill-rule="evenodd" clip-rule="evenodd" d="M55.965 15.391c-.28.22-.598.725-.709 1.122-.111.402-.201 2.784-.202 5.358l-.001 4.634h-1.09c-.944 0-1.166.077-1.66.57l-.572.571v8.614c0 5.535.072 8.748.202 8.99.3.562 1.232.964 2.23.964h.89l.01 4.732c.014 5.437.103 5.915 1.21 6.456.615.3.84.32 1.416.13 1.255-.413 1.272-.494 1.272-6.19v-5.128h.986c1.087 0 2.019-.386 2.33-.965.128-.24.2-3.446.2-8.963v-8.588l-.47-.547c-.4-.463-.66-.561-1.71-.645l-1.239-.098-.097-5.237-.098-5.237-.548-.471c-.682-.585-1.658-.615-2.35-.072zm31.58.072l-.547.47-.098 5.238-.098 5.237-1.239.098c-1.05.084-1.31.182-1.71.645l-.47.547v8.588c0 5.517.072 8.722.201 8.963.31.58 1.242.965 2.33.965h.986v5.128c0 5.696.017 5.777 1.272 6.19.576.19.8.17 1.416-.13 1.106-.54 1.196-1.019 1.209-6.456l.01-4.732h.89c.998 0 1.93-.402 2.23-.965.13-.24.202-3.454.202-8.989v-8.614l-.571-.57c-.495-.494-.717-.57-1.66-.57h-1.09l-.002-4.635c0-2.574-.09-4.956-.202-5.358-.401-1.443-1.972-1.983-3.058-1.05zM21.153 24.71c-2.879.994-5.112 3.353-5.849 6.178-.267 1.026-.303 4.545-.303 29.766 0 25.069.037 28.746.3 29.752.876 3.362 3.802 5.974 7.32 6.534.788.126 6.469.203 14.97.204l13.698.001.105 1.415c.116 1.571-.121 5.342-.458 7.27l-.218 1.251-5.957.057-5.958.057-.471.547a1.943 1.943 0 00.1 2.688l.57.57h25.975c25.652 0 25.98-.005 26.47-.389.96-.755 1.021-2.232.126-3.042-.384-.347-.85-.381-6.4-.472L79.184 107l-.236-1.269c-.374-2.012-.648-5.873-.516-7.28l.12-1.29 14.578-.061c13.491-.057 14.656-.089 15.642-.418 3.016-1.008 5.445-3.675 6.066-6.66.136-.655.185-10.734.15-30.734l-.052-29.758-.513-1.073c-.724-1.515-1.704-2.556-3.136-3.331l-1.236-.67-5.425-.06-5.426-.06-.582.582c-.791.79-.796 1.733-.013 2.609l.57.637 5.047.098c5.695.11 5.742.122 6.51 1.671.389.783.394 1.128.394 25.124v24.33H18.902l.051-23.855.052-23.855.428-.8c.236-.439.745-1.076 1.131-1.415 1.337-1.172 1.527-1.2 7.99-1.201 3.431-.001 6.188-.085 6.61-.202 1.52-.422 2.019-2.064.952-3.13l-.571-.57-6.707.006c-5.845.006-6.832.05-7.686.345zM58.57 36.36v5.952h-2.931V30.408h2.931v5.952zm31.651 0v5.952h-2.93V30.408h2.93v5.952zM40.46 30.79c-.236.1-.587.424-.782.72-.313.477-.36 1.108-.414 5.572l-.06 5.033h-1.078c-.931 0-1.156.078-1.65.57l-.57.571v17.376l.459.533c.385.447.652.547 1.66.62l1.202.086.011 4.709c.013 5.354.108 5.876 1.173 6.446.829.444 1.557.324 2.252-.37l.472-.472V61.871l1.296-.083c1.118-.07 1.36-.156 1.759-.619l.462-.536V43.309l-.471-.547c-.4-.463-.66-.561-1.71-.645l-1.239-.098-.097-5.215c-.093-4.936-.12-5.236-.5-5.616-.464-.463-1.551-.661-2.175-.397zm31.682-.011c-.937.4-.965.557-1.068 6.048l-.098 5.19-1.238.1c-1.05.083-1.31.181-1.71.644l-.47.547v17.324l.461.536c.4.463.64.548 1.759.62l1.296.082v10.314l.472.471c.695.695 1.423.815 2.252.371 1.065-.57 1.16-1.092 1.173-6.446l.01-4.709 1.203-.087c1.008-.072 1.275-.172 1.66-.62l.46-.532V43.257l-.572-.57c-.495-.494-.717-.57-1.66-.57h-1.09l-.001-4.635c-.001-4.762-.125-5.798-.758-6.37-.436-.395-1.528-.569-2.081-.332zM42.744 51.97v5.953h-2.931V46.019h2.931v5.952zm31.651 0v5.953h-2.93V46.019h2.93v5.952zm36.698 34.491c-.077 3.579-.265 4.195-1.65 5.41-1.587 1.391 2.504 1.274-44.426 1.274s-42.838.117-44.426-1.274c-1.385-1.215-1.572-1.831-1.65-5.41l-.067-3.17h92.287l-.068 3.17zm-36.556 13.563c.011 1.583.16 3.793.33 4.912.17 1.119.31 2.063.31 2.098 0 .035-4.622.063-10.27.063-9.691 0-10.265-.019-10.167-.341.277-.916.542-4.15.55-6.732l.01-2.879h19.216l.02 2.879z" fill="#06FF79"/></g><defs><filter id="filter0_d_579_1234" x="0" y="0" width="130" height="126" filterUnits="userSpaceOnUse" color-interpolation-filters="sRGB"><feFlood flood-opacity="0" result="BackgroundImageFix"/><feColorMatrix in="SourceAlpha" values="0 0 0 0 0 0 0 0 0 0 0 0 0 0 0 0 0 0 127 0" result="hardAlpha"/><feOffset/><feGaussianBlur stdDeviation="7.5"/><feComposite in2="hardAlpha" operator="out"/><feColorMatrix values="0 0 0 0 0.0463889 0 0 0 0 0.695833 0 0 0 0 0.346333 0 0 0 0.8 0"/><feBlend in2="BackgroundImageFix" result="effect1_dropShadow_579_1234"/><feBlend in="SourceGraphic" in2="effect1_dropShadow_579_1234" result="shape"/></filter></defs></svg>
